web/appcode/appcode-eap.svg

<svg height="70" viewBox="0 0 70 70" width="70" xmlns="http://www.w3.org/2000/svg" xmlns:xlink="http://www.w3.org/1999/xlink"><linearGradient id="a" gradientUnits="userSpaceOnUse" x1="20.61698" x2="70" y1="57.75472" y2="57.75472"><stop offset=".19355" stop-color="#00daf0"/><stop offset=".90323" stop-color="#247ce6"/></linearGradient><linearGradient id="b" x1="1.27382" x2="38.40974" xlink:href="#a" y1="17.41512" y2="17.41512"/><linearGradient id="c" gradientUnits="userSpaceOnUse" x1="45.87565" x2="11.19672" y1="72.22186" y2="23.82378"><stop offset=".0914" stop-color="#1ddf93"/><stop offset=".48387" stop-color="#00daf0"/><stop offset=".90323" stop-color="#247ce6"/></linearGradient><path d="m59.171 54.981 10.829-28.631-32.671-7.395-4.351 12.197z" fill="#247ce6"/><path d="m70 56.149-16.51 13.851-32.873-8.473 8.823-16.018z" fill="url(#a)"/><path d="m9.679 34.83-8.405-24.035 37.136-10.795-3.02 31.028z" fill="url(#b)"/><path d="m61.075 40.524-10.42-17.784.196-.121-12.441-22.619-38.41 41.483v28.517l69.797-13.851z" fill="url(#c)"/><path d="m14 14h42v42h-42z"/><g fill="#fff"><path d="m17.98999 48.125h15.75v2.625h-15.75z"/><path d="m24.77584 19.45454h3.49836l7.39112 17.36888h-3.96656l-1.57666-3.86808h-7.2924l-1.5767 3.86808h-3.868zm3.99125 10.15028-2.29119-5.59236-2.29118 5.59236z"/><path d="m34.68846 28.251v-.04995a8.89109 8.89109 0 0 1 9.122-9.04648 9.02555 9.02555 0 0 1 6.897 2.69857l-2.44933 2.82414a6.45505 6.45505 0 0 0 -4.47325-1.974 5.18329 5.18329 0 0 0 -5.07288 5.44783v.05a5.19525 5.19525 0 0 0 5.07292 5.4977 6.31355 6.31355 0 0 0 4.59818-2.0489l2.44934 2.47432a8.94361 8.94361 0 0 1 -7.17246 3.124 8.83021 8.83021 0 0 1 -8.97152-8.99723"/></g><path d="m37 53h33v17h-33z" fill="#d99e2b"/><path d="m40.05563 66.966h7.19661v-1.72329h-5.50724v-2.94521h4.82041v-1.72325h-4.82041v-2.85131h5.43874v-1.72325h-7.12811z"/><path d="m48.15627 66.966h1.86832l1.06757-2.6268h4.9082l1.05281 2.6268h1.9277l-4.5671-10.95841h-1.6904zm3.60316-4.321 1.77945-4.35241 1.79421 4.35241z"/><path d="m59.87536 66.966h1.62869v-3.52491h1.84026a3.50288 3.50288 0 0 0 3.70715-3.74426v-.03124a3.3623 3.3623 0 0 0 -3.52185-3.6659h-3.65425zm1.62869-5.26364v-3.94818h1.89333a1.80657 1.80657 0 0 1 1.99894 1.95836v.03146a1.86935 1.86935 0 0 1 -1.99894 1.95836z"/><path d="m37 53h33v17h-33z" fill="#d99e2b"/><path d="m40.05563 66.966h7.19661v-1.72329h-5.50724v-2.94521h4.82041v-1.72325h-4.82041v-2.85131h5.43874v-1.72325h-7.12811z"/><path d="m48.15627 66.966h1.86832l1.06757-2.6268h4.9082l1.05281 2.6268h1.9277l-4.5671-10.95841h-1.6904zm3.60316-4.321 1.77945-4.35241 1.79421 4.35241z"/><path d="m59.87536 66.966h1.62869v-3.52491h1.84026a3.50285 3.50285 0 0 0 3.70715-3.74426v-.03124a3.36233 3.36233 0 0 0 -3.52185-3.6659h-3.65425zm1.62869-5.26364v-3.94818h1.89333a1.80658 1.80658 0 0 1 1.99894 1.95836v.03146a1.86938 1.86938 0 0 1 -1.99894 1.95836z"/></svg>

<svg id="Layer_1" data-name="Layer 1" xmlns="http://www.w3.org/2000/svg" xmlns:xlink="http://www.w3.org/1999/xlink" width="70" height="70" viewBox="0 0 70 70">
  <defs>
    <linearGradient id="linear-gradient" x1="20.61698" y1="57.75472" x2="70" y2="57.75472" gradientUnits="userSpaceOnUse">
      <stop offset="0.19355" stop-color="#00daf0"/>
      <stop offset="0.90323" stop-color="#247ce6"/>
    </linearGradient>
    <linearGradient id="linear-gradient-2" x1="1.27382" y1="17.41512" x2="38.40974" y2="17.41512" xlink:href="#linear-gradient"/>
    <linearGradient id="linear-gradient-3" x1="45.87565" y1="72.22186" x2="11.19672" y2="23.82378" gradientUnits="userSpaceOnUse">
      <stop offset="0.0914" stop-color="#1ddf93"/>
      <stop offset="0.48387" stop-color="#00daf0"/>
      <stop offset="0.90323" stop-color="#247ce6"/>
    </linearGradient>
  </defs>
  <title>appCodeEAP</title>
  <g>
    <polygon points="59.171 54.981 70 26.35 37.329 18.955 32.978 31.152 59.171 54.981" fill="#247ce6"/>
    <polygon points="70 56.149 53.49 70 20.617 61.527 29.44 45.509 70 56.149" fill="url(#linear-gradient)"/>
    <polygon points="9.679 34.83 1.274 10.795 38.41 0 35.39 31.028 9.679 34.83" fill="url(#linear-gradient-2)"/>
    <polygon points="61.075 40.524 50.655 22.74 50.851 22.619 38.41 0 0 41.483 0 70 69.797 56.149 61.075 40.524" fill="url(#linear-gradient-3)"/>
  </g>
  <g>
    <rect x="14" y="14" width="42" height="42"/>
    <rect x="17.98999" y="48.125" width="15.75" height="2.625" fill="#fff"/>
    <path d="M24.77584,19.45454H28.2742l7.39112,17.36888H31.69876L30.1221,32.95534H22.8297L21.253,36.82342H17.385Zm3.99125,10.15028L26.4759,24.01246l-2.29118,5.59236Z" fill="#fff"/>
    <path d="M34.68846,28.251v-.04995a8.89109,8.89109,0,0,1,9.122-9.04648,9.02555,9.02555,0,0,1,6.897,2.69857l-2.44933,2.82414a6.45505,6.45505,0,0,0-4.47325-1.974A5.18329,5.18329,0,0,0,38.712,28.15111v.05a5.19525,5.19525,0,0,0,5.07292,5.4977,6.31355,6.31355,0,0,0,4.59818-2.0489l2.44934,2.47432a8.94361,8.94361,0,0,1-7.17246,3.124A8.83021,8.83021,0,0,1,34.68846,28.251" fill="#fff"/>
  </g>
  <g>
    <rect x="37" y="53" width="33" height="17" fill="#d99e2b"/>
    <g>
      <path d="M40.05563,66.966h7.19661V65.24271H41.745V62.2975h4.82041V60.57425H41.745V57.72294h5.43874V55.99969H40.05563Z"/>
      <path d="M48.15627,66.966h1.86832l1.06757-2.6268h4.9082l1.05281,2.6268h1.9277l-4.5671-10.95841h-1.6904Zm3.60316-4.321,1.77945-4.35241L55.33309,62.645Z"/>
      <path d="M59.87536,66.966h1.62869V63.44109h1.84026a3.50288,3.50288,0,0,0,3.70715-3.74426v-.03124a3.3623,3.3623,0,0,0-3.52185-3.6659H59.87536Zm1.62869-5.26364V57.75418h1.89333a1.80657,1.80657,0,0,1,1.99894,1.95836V59.744a1.86935,1.86935,0,0,1-1.99894,1.95836Z"/>
    </g>
  </g>
  <g>
    <rect x="37" y="53" width="33" height="17" fill="#d99e2b"/>
    <g>
      <path d="M40.05563,66.966h7.19661V65.24271H41.745V62.2975h4.82041V60.57425H41.745V57.72294h5.43874V55.99969H40.05563Z"/>
      <path d="M48.15627,66.966h1.86832l1.06757-2.6268h4.9082l1.05281,2.6268h1.9277l-4.5671-10.95841h-1.6904Zm3.60316-4.321,1.77945-4.35241L55.33309,62.645Z"/>
      <path d="M59.87536,66.966h1.62869V63.44109h1.84026a3.50285,3.50285,0,0,0,3.70715-3.74426v-.03124a3.36233,3.36233,0,0,0-3.52185-3.6659H59.87536Zm1.62869-5.26364V57.75418h1.89333a1.80658,1.80658,0,0,1,1.99894,1.95836V59.744a1.86938,1.86938,0,0,1-1.99894,1.95836Z"/>
    </g>
  </g>
</svg>
